X:97
T: BAUER BAUE KESSEL
N: K2075A
O: Europa, Mitteleuropa, Deutschland, Schleswig
R: Kinder - Lied, Reigen, Tanz - Spiel
M: 2/4
L: 1/16
K: G
 | G2G2G2B2 | G4D4 |
G2G2G2B2 | G4D4 |
G2G2E4 | G2G2E2E2 |
G2G2A2A2 | G4E4 |
G2G2G2B2 | G2G2D4 |
d3cB2A2 | G2G2G4

@@@ Tune index: 7434
